Suru++-Ubuntu/apps/symbolic/toki-tori-symbolic.svg

<svg width="16" height="16" version="1.1" xmlns="http://www.w3.org/2000/svg">
 <g transform="matrix(.03872568 0 0 .03872568 -.45133703 -1.5159518)" style="enable-background:new">
  <path transform="matrix(21.622127,0,0,21.622127,397.05357,73.372208)" d="m-7.4550781-1.5703125c0.020329 1.1755019-4.9509849 3.6039878-5.5136719 6.2773437-0.04845 0.1680408-0.134869 0.4413152-0.207031 0.671875a0.45085883 0.42831731 0 0 0-0.248047 0.1523438c-2.363982 2.8784865-1.959966 5.618197-2.011719 8.357422a0.45085883 0.42831731 0 0 0 0.859375 0.193359s0.172782-0.339825 0.429688-0.890625c0.900988 2.512102 3.563649 4.333938 6.7109371 4.333985 3.1472883-3.8e-5 5.8114156-1.82188 6.7128906-4.333985l0.001953 2e-3c0.25643979 0.549737 0.42773437 0.888672 0.42773437 0.888672a0.45085883 0.42831731 0 0 0 0.857422-0.193406c-0.05175115-2.739223 0.35421601-5.4789373-2.0097656-8.357422a0.45085883 0.42831731 0 0 0-0.2480469-0.1523438c-0.0721624-0.2305598-0.1585775-0.5038342-0.2070312-0.671875-0.5953693-2.8286288-2.6141717-5.1016192-5.5351563-5.1015624-0.1603427-3.28e-6 -0.022218-1.331153-0.019531-1.1757812zm0.019531 4.375-0.072266 0.4160156c-0.7046171 0.1020769-1.2009702 0.2960956-1.71875 0.4804688 0 0 0.7014285-0.8964844 1.791016-0.8964844zm0.8964844 0c1.0921049 0.00864 1.7929687 0.8964844 1.7929687 0.8964844-0.5181236-0.1855544-1.0168822-0.3802845-1.722656-0.4863281zm-1.5742185 1.6015625a1.5492165 2.1181573 16.094315 0 1 0.2636718 0.033203 1.5492165 2.1181573 16.094315 0 1 0.734375 0.5410157 2.1181573 1.5492164 73.905685 0 1 0.7363282-0.5410156 2.1181573 1.5492164 73.905685 0 1 0.2636718-0.0332031 2.1181573 1.5492164 73.905685 0 1 1.7851563 1.7070312 2.1181573 1.5492164 73.905685 0 1-0.9589844 2.4179688 2.1181573 1.5492164 73.905685 0 1-1.8261719-1.0957031 1.5492165 2.1181573 16.094315 0 1-1.8242187 1.0957031 1.5492165 2.1181573 16.094315 0 1-0.9589844-2.4179688 1.5492165 2.1181573 16.094315 0 1 1.7851563-1.7070312z" style="fill:#808080"/>
 </g>
</svg>

<svg xmlns="http://www.w3.org/2000/svg" width="16" height="16" version="1.1">
 <g style="enable-background:new" transform="matrix(0.03872568,0,0,0.03872568,-0.45133703,-1.5159518)">
  <path style="fill:#808080" d="m -7.4550781,-1.5703125 c 0.020329,1.17550189 -4.9509849,3.6039878 -5.5136719,6.2773437 -0.04845,0.1680408 -0.134869,0.4413152 -0.207031,0.671875 A 0.45085883,0.42831731 0 0 0 -13.423828,5.53125 c -2.363982,2.8784865 -1.959966,5.618197 -2.011719,8.357422 a 0.45085883,0.42831731 0 0 0 0.859375,0.193359 c 0,0 0.172782,-0.339825 0.429688,-0.890625 0.900988,2.512102 3.563649,4.333938 6.7109371,4.333985 3.1472883,-3.8e-5 5.8114156,-1.82188 6.71289065,-4.333985 0,0 0.001953,0.002 0.001953,0.002 0.25643979,0.549737 0.42773437,0.888672 0.42773437,0.888672 a 0.45085883,0.42831731 0 0 0 0.857422,-0.193406 C 0.51270197,11.149449 0.91866913,8.4097347 -1.4453125,5.53125 A 0.45085883,0.42831731 0 0 0 -1.6933594,5.3789062 C -1.7655218,5.1483464 -1.8519369,4.875072 -1.9003906,4.7070312 -2.4957599,1.8784024 -4.5145623,-0.39458795 -7.4355469,-0.39453125 c -0.1603427,-3.28e-6 -0.022218,-1.33115305 -0.019531,-1.17578125 z m 0.019531,4.375 -0.072266,0.4160156 c -0.7046171,0.1020769 -1.2009702,0.2960956 -1.71875,0.4804688 0,0 0.7014285,-0.8964844 1.791016,-0.8964844 z m 0.8964844,0 c 1.0921049,0.00864 1.7929687,0.8964844 1.7929687,0.8964844 C -5.2642176,3.5156175 -5.7629762,3.3208874 -6.46875,3.2148438 Z M -8.1132812,4.40625 a 1.5492165,2.1181573 16.094315 0 1 0.2636718,0.033203 1.5492165,2.1181573 16.094315 0 1 0.734375,0.5410157 A 2.1181573,1.5492164 73.905685 0 1 -6.3789062,4.4394531 2.1181573,1.5492164 73.905685 0 1 -6.1152344,4.40625 2.1181573,1.5492164 73.905685 0 1 -4.3300781,6.1132812 2.1181573,1.5492164 73.905685 0 1 -5.2890625,8.53125 2.1181573,1.5492164 73.905685 0 1 -7.1152344,7.4355469 1.5492165,2.1181573 16.094315 0 1 -8.9394531,8.53125 1.5492165,2.1181573 16.094315 0 1 -9.8984375,6.1132812 1.5492165,2.1181573 16.094315 0 1 -8.1132812,4.40625 Z" transform="matrix(21.622127,0,0,21.622127,397.05357,73.372208)"/>
 </g>
</svg>
